Origami/48x48/apps/staruml.svg

<svg width="48" height="48" version="1" xmlns="http://www.w3.org/2000/svg">
 <path d="m24 5.0002076c-1.893179 0.026691-3.243329 1.1515686-3.876953 3.0136719l0.02344-0.083984-2.974609 9.0703129h-10.03125c-0.02187-3.46e-4 -0.042583-3.46e-4 -0.064453 0-1.197906 0.0383-2.2780475 0.590003-3.0390625 1.503906-1.645849 1.863555-1.2970123 4.795729 0.7929687 6.185547l7.8867189 5.685547-3.060547 9.378906c-0.0034 0.01038-0.00657 0.02081-0.00977 0.03125-0.467655 1.515362-0.027888 3.076558 1.1484376 4.144532 0.0085 0.0079 0.01864 0.01574 0.02734 0.02344 1.413575 1.239545 3.399732 1.397086 4.996093 0.371094 0.03037-0.01938 0.06057-0.03961 0.08984-0.06055l8.0918063-5.7636724 8.091797 5.763672c0.02927 0.02094 0.05947 0.04117 0.08984 0.06055 1.596361 1.025992 3.582518 0.868451 4.996093-0.371094 0.0087-0.0077 0.01879-0.01556 0.02734-0.02344 1.176326-1.067974 1.616093-2.62917 1.148438-4.144532-0.0032-0.01044-0.0064-0.02087-0.0098-0.03125l-3.060547-9.378906 7.886719-5.685547c2.089981-1.389818 2.438818-4.321992 0.792969-6.185547-0.761015-0.913903-1.841157-1.465606-3.039063-1.503906-0.02187-3.46e-4 -0.04258-3.46e-4 -0.06445 0h-10.03125l-2.974609-9.0703129 0.02344 0.083984c-0.633588-1.8621029-1.983738-2.9869805-3.876917-3.0136715z" style="opacity:.2"/>
 <path d="m 24,4 c 1.893179,0.026691 3.243329,1.1515686 3.876953,3.0136719 L 27.853513,6.9296879 30.828122,16 l 10.03125,0 c 0.02187,-3.46e-4 0.04258,-3.46e-4 0.06445,0 1.197906,0.0383 2.278048,0.589284 3.039063,1.503187 L 24,24 Z" style="fill:#f74545"/>
 <path d="m37.17773 42.953128c0.0087-0.0077 0.01879-0.01556 0.02734-0.02344 1.176326-1.067974 1.616093-2.62917 1.148438-4.144532-0.0032-0.01044-0.0064-0.02087-0.0098-0.03125l-3.060505-9.378906 7.886719-5.685547c2.089981-1.389818 2.438818-4.322711 0.792969-6.186266l-19.962891 6.496813s13.20507 18.929688 13.17773 18.953128z" style="fill:#707070"/>
 <path d="m 10.794918,42.929688 c 0.0085,0.0079 0.01864,0.01574 0.02734,0.02344 1.413575,1.239545 3.399732,1.397086 4.996093,0.371094 0.03037,-0.01938 0.06057,-0.03961 0.08984,-0.06055 L 24,37.5 l 8.091797,5.763672 c 0.02927,0.02094 0.05947,0.04117 0.08984,0.06055 1.596361,1.025992 3.582518,0.868451 4.996093,-0.371094 0.0087,-0.0077 0.01879,-0.01556 0.02734,-0.02344 L 24,24 Z" style="fill:#7b4188"/>
 <path d="m23.999947 4c-1.893179 0.026691-3.243329 1.1515686-3.876953 3.0136719l0.02344-0.083984-2.974609 9.0703121h-10.03125c-0.02187-3.46e-4 -0.04258-3.46e-4 -0.06445 0-1.197906 0.0383-2.278048 0.589284-3.039063 1.503187l19.962885 6.496813z" style="fill:#ff9d45"/>
 <path d="m10.822217 42.953128c-0.0087-0.0077-0.01879-0.01556-0.02734-0.02344-1.176326-1.067974-1.616093-2.62917-1.148438-4.144532 0.0032-0.01044 0.0064-0.02087 0.0098-0.03125l3.060505-9.378906-7.886719-5.685547c-2.089981-1.389818-2.438818-4.322711-0.792969-6.186266l19.962891 6.496813s-13.20507 18.929688-13.17773 18.953128z" style="fill:#ffd945"/>
 <path d="m24 4c-1.893179 0.026691-3.243329 1.1515686-3.876953 3.0136719l0.023437-0.0839844-2.974609 9.0703125h-10.03125c-0.02187-3.46e-4 -0.0425831-3.46e-4 -0.0644531 0-1.197906 0.0383-2.2780475 0.590003-3.0390625 1.503906-0.8267686 0.93613-1.1477749 2.14068-1 3.285156 0.0910091-0.81813 0.4129481-1.620451 1-2.285156 0.761015-0.913903 1.8411565-1.465606 3.0390625-1.503906 0.02187-3.46e-4 0.0425831-3.46e-4 0.0644531 0h10.03125l2.974609-9.0703125-0.023437 0.0839844c0.633624-1.8621033 1.983774-2.9869809 3.876953-3.0136719 1.893179 0.026691 3.243365 1.151569 3.876953 3.0136719l-0.023437-0.0839844 2.974609 9.0703125h10.03125c0.02187-3.46e-4 0.042583-3.46e-4 0.064453 0 1.197906 0.0383 2.278048 0.590003 3.039063 1.503906 0.587051 0.664705 0.908991 1.467026 1 2.285156 0.147775-1.144476-0.173232-2.349026-1-3.285156-0.761015-0.913903-1.841157-1.465606-3.039063-1.503906-0.02187-3.46e-4 -0.042583-3.46e-4 -0.064453 0h-10.03125l-2.974609-9.0703125 0.023437 0.0839844c-0.633624-1.8621033-1.983774-2.9869809-3.876953-3.0136719zm-11.546875 26.183594l-2.796875 8.570312c-0.0034 0.01038-0.0065656 0.02081-0.0097656 0.03125-0.1785131 0.578443-0.2229084 1.162792-0.1464844 1.72461 0.0291582-0.241167 0.0721045-0.483594 0.1464844-0.72461 0.0032-0.01044 0.0063656-0.02087 0.0097656-0.03125l3.060547-9.378906-0.263672-0.191406zm23.09375 0l-0.263672 0.191406 3.060547 9.378906c0.0034 0.01038 0.006566 0.02081 0.009766 0.03125 0.074379 0.241016 0.117326 0.483443 0.146484 0.72461 0.076424-0.561818 0.032029-1.146167-0.146484-1.72461-0.0032-0.01044-0.006366-0.02087-0.009766-0.03125l-2.796875-8.570312z" style="fill:#ffffff;opacity:.2"/>
</svg>

<svg xmlns="http://www.w3.org/2000/svg" width="48" height="48" version="1">
 <path style="opacity:0.2" d="m 24,5.0002076 c -1.893179,0.026691 -3.243329,1.1515686 -3.876953,3.0136719 l 0.02344,-0.083984 -2.974609,9.0703129 -10.03125,0 c -0.02187,-3.46e-4 -0.042583,-3.46e-4 -0.064453,0 -1.197906,0.0383 -2.2780475,0.590003 -3.0390625,1.503906 -1.645849,1.863555 -1.2970123,4.795729 0.7929687,6.185547 l 7.8867189,5.685547 -3.060547,9.378906 c -0.0034,0.01038 -0.00657,0.02081 -0.00977,0.03125 -0.467655,1.515362 -0.027888,3.076558 1.1484376,4.144532 0.0085,0.0079 0.01864,0.01574 0.02734,0.02344 1.413575,1.239545 3.399732,1.397086 4.996093,0.371094 0.03037,-0.01938 0.06057,-0.03961 0.08984,-0.06055 L 24,38.500208 32.091797,44.26388 c 0.02927,0.02094 0.05947,0.04117 0.08984,0.06055 1.596361,1.025992 3.582518,0.868451 4.996093,-0.371094 0.0087,-0.0077 0.01879,-0.01556 0.02734,-0.02344 1.176326,-1.067974 1.616093,-2.62917 1.148438,-4.144532 -0.0032,-0.01044 -0.0064,-0.02087 -0.0098,-0.03125 l -3.060547,-9.378906 7.886719,-5.685547 c 2.089981,-1.389818 2.438818,-4.321992 0.792969,-6.185547 -0.761015,-0.913903 -1.841157,-1.465606 -3.039063,-1.503906 -0.02187,-3.46e-4 -0.04258,-3.46e-4 -0.06445,0 l -10.03125,0 -2.974609,-9.0703129 0.02344,0.083984 C 27.243329,6.1517762 25.893179,5.0268986 24,5.0002076 Z"/>
 <path style="fill:#f74545" d="m 24,4 c 1.893179,0.026691 3.243329,1.1515686 3.876953,3.0136719 L 27.853513,6.9296879 30.828122,16 l 10.03125,0 c 0.02187,-3.46e-4 0.04258,-3.46e-4 0.06445,0 1.197906,0.0383 2.278048,0.589284 3.039063,1.503187 L 24,24 Z"/>
 <path style="fill:#707070" d="m 37.17773,42.953128 c 0.0087,-0.0077 0.01879,-0.01556 0.02734,-0.02344 1.176326,-1.067974 1.616093,-2.62917 1.148438,-4.144532 -0.0032,-0.01044 -0.0064,-0.02087 -0.0098,-0.03125 L 35.283203,29.375 43.169922,23.689453 c 2.089981,-1.389818 2.438818,-4.322711 0.792969,-6.186266 L 24,24 c 0,0 13.20507,18.929688 13.17773,18.953128 z"/>
 <path style="fill:#7b4188" d="m 10.794918,42.929688 c 0.0085,0.0079 0.01864,0.01574 0.02734,0.02344 1.413575,1.239545 3.399732,1.397086 4.996093,0.371094 0.03037,-0.01938 0.06057,-0.03961 0.08984,-0.06055 L 24,37.5 l 8.091797,5.763672 c 0.02927,0.02094 0.05947,0.04117 0.08984,0.06055 1.596361,1.025992 3.582518,0.868451 4.996093,-0.371094 0.0087,-0.0077 0.01879,-0.01556 0.02734,-0.02344 L 24,24 Z"/>
 <path style="fill:#ff9d45" d="M 23.999947,4 C 22.106768,4.026691 20.756618,5.1515686 20.122994,7.0136719 L 20.146434,6.9296879 17.171825,16 7.140575,16 c -0.02187,-3.46e-4 -0.04258,-3.46e-4 -0.06445,0 -1.197906,0.0383 -2.278048,0.589284 -3.039063,1.503187 L 23.999947,24 Z"/>
 <path style="fill:#ffd945" d="m 10.822217,42.953128 c -0.0087,-0.0077 -0.01879,-0.01556 -0.02734,-0.02344 -1.176326,-1.067974 -1.616093,-2.62917 -1.148438,-4.144532 0.0032,-0.01044 0.0064,-0.02087 0.0098,-0.03125 L 12.716744,29.375 4.830025,23.689453 C 2.740044,22.299635 2.391207,19.366742 4.037056,17.503187 L 23.999947,24 c 0,0 -13.20507,18.929688 -13.17773,18.953128 z"/>
 <path style="opacity:0.2;fill:#ffffff" d="M 24 4 C 22.106821 4.026691 20.756671 5.1515686 20.123047 7.0136719 L 20.146484 6.9296875 L 17.171875 16 L 7.140625 16 C 7.118755 15.999654 7.0980419 15.999654 7.0761719 16 C 5.8782659 16.0383 4.7981244 16.590003 4.0371094 17.503906 C 3.2103408 18.440036 2.8893345 19.644586 3.0371094 20.789062 C 3.1281185 19.970932 3.4500575 19.168611 4.0371094 18.503906 C 4.7981244 17.590003 5.8782659 17.0383 7.0761719 17 C 7.0980419 16.999654 7.118755 16.999654 7.140625 17 L 17.171875 17 L 20.146484 7.9296875 L 20.123047 8.0136719 C 20.756671 6.1515686 22.106821 5.026691 24 5 C 25.893179 5.026691 27.243365 6.151569 27.876953 8.0136719 L 27.853516 7.9296875 L 30.828125 17 L 40.859375 17 C 40.881245 16.999654 40.901958 16.999654 40.923828 17 C 42.121734 17.0383 43.201876 17.590003 43.962891 18.503906 C 44.549942 19.168611 44.871882 19.970932 44.962891 20.789062 C 45.110666 19.644586 44.789659 18.440036 43.962891 17.503906 C 43.201876 16.590003 42.121734 16.0383 40.923828 16 C 40.901958 15.999654 40.881245 15.999654 40.859375 16 L 30.828125 16 L 27.853516 6.9296875 L 27.876953 7.0136719 C 27.243329 5.1515686 25.893179 4.026691 24 4 z M 12.453125 30.183594 L 9.65625 38.753906 C 9.65285 38.764286 9.6496844 38.774716 9.6464844 38.785156 C 9.4679713 39.363599 9.423576 39.947948 9.5 40.509766 C 9.5291582 40.268599 9.5721045 40.026172 9.6464844 39.785156 C 9.6496844 39.774716 9.65285 39.764286 9.65625 39.753906 L 12.716797 30.375 L 12.453125 30.183594 z M 35.546875 30.183594 L 35.283203 30.375 L 38.34375 39.753906 C 38.34715 39.764286 38.350316 39.774716 38.353516 39.785156 C 38.427895 40.026172 38.470842 40.268599 38.5 40.509766 C 38.576424 39.947948 38.532029 39.363599 38.353516 38.785156 C 38.350316 38.774716 38.34715 38.764286 38.34375 38.753906 L 35.546875 30.183594 z"/>
</svg>
